!!!COM: knaan
!!!OTL: world-cup-theme
!!!RNB: hooktheoryid: knJmBzzAmAV
**kern	**text
*clefG2	*
*k[]	*
*M4/4	*
=1	=1
8c	C
8c	.
8r	.
8c	.
4e	.
4g	.
=2	=2
4a	F
2r	.
8a	.
8a	.
=3	=3
4a	Am
8a	.
8a	.
8g	.
4e	.
[8d	.
=4	=4
8d]	G
2r	.
8r	.
8d	.
8d	.
=5	=5
4c	C
8c	.
8c	.
4e	.
8g	.
[8a	.
=6	=6
4a]	F
2r	.
8a	.
8a	.
=7	=7
8a	Am
4a	.
8a	.
8g	.
8e	.
8e	.
[8d	.
=8	=8
8d]	G
2..r	.
*-	*-